icons/1_Primary/ecobee.svg

<svg xmlns="http://www.w3.org/2000/svg" width="1024" height="1024" fill="none">
   <g clip-path="url(#a)">
      <path fill="#979797" d="M512 1024c282.77 0 512-229.23 512-512S794.77 0 512 0 0 229.23 0 512s229.23 512 512 512Z"/>
      <path fill="#fff" d="M257 469.1c13.82 0 24.237 3.497 31.25 10.49 7.013 6.993 10.52 17.43 10.52 31.31v7.85h-81.54c.2 10.967 2.973 19.04 8.32 24.22s13.52 7.77 24.52 7.77h6.65c8.173 0 14.73-1.257 19.67-3.77a20.649 20.649 0 0 0 10.29-11.16h9.68a28.373 28.373 0 0 1-13 17.73c-6.667 4.067-15.443 6.103-26.33 6.11h-7.27c-13.82 0-24.237-3.497-31.25-10.49-7.013-6.993-10.517-17.433-10.51-31.32v-6.94c0-13.88 3.507-24.317 10.52-31.31 7.013-6.993 17.43-10.49 31.25-10.49H257Zm103.36 0c12.307 0 21.94 2.79 28.9 8.37 6.96 5.58 11.097 13.913 12.41 25h-9.23c-1.333-8.34-4.637-14.5-9.91-18.48-5.273-3.98-12.763-5.98-22.47-6h-6.66c-11.2 0-19.473 2.717-24.82 8.15-5.347 5.433-8.013 13.833-8 25.2v6c0 11.373 2.667 19.773 8 25.2s13.607 8.143 24.82 8.15h6.65c9.687 0 17.18-2 22.48-6 5.3-4 8.603-10.163 9.91-18.49h9.23c-1.333 11.067-5.47 19.4-12.41 25-6.94 5.6-16.573 8.39-28.9 8.37h-7.26c-13.827 0-24.243-3.497-31.25-10.49-7.007-6.993-10.513-17.43-10.52-31.31v-6.87c0-13.88 3.507-24.317 10.52-31.31 7.013-6.993 17.43-10.49 31.25-10.49h7.26Zm102.21 0c13.82 0 24.237 3.497 31.25 10.49 7.013 6.993 10.52 17.43 10.52 31.31v6.94c0 13.887-3.507 24.323-10.52 31.31-7.013 6.987-17.427 10.483-31.24 10.49h-7.26c-13.827 0-24.243-3.497-31.25-10.49-7.007-6.993-10.513-17.43-10.52-31.31v-6.94c0-13.88 3.507-24.317 10.52-31.31 7.013-6.993 17.43-10.49 31.25-10.49h7.26-.01Zm65-29.07v43a28.68 28.68 0 0 1 12.78-10.42c5.4-2.313 11.983-3.47 19.75-3.47h7.27c13.82 0 24.237 3.497 31.25 10.49 7.013 6.993 10.52 17.43 10.52 31.31v6.94c0 13.887-3.507 24.323-10.52 31.31-7.013 6.987-17.43 10.483-31.25 10.49h-7.27c-13.82 0-24.237-3.497-31.25-10.49-7.013-6.993-10.497-17.443-10.45-31.35V440l9.17.03Zm143.3 29.07c13.82 0 24.237 3.497 31.25 10.49 7.013 6.993 10.52 17.43 10.52 31.31v7.85h-81.56c.2 10.967 2.973 19.04 8.32 24.22s13.517 7.77 24.51 7.77h6.66c8.173 0 14.73-1.257 19.67-3.77a20.652 20.652 0 0 0 10.29-11.16h9.68a28.373 28.373 0 0 1-13 17.73c-6.667 4.067-15.447 6.103-26.34 6.11h-7.26c-13.827 0-24.243-3.497-31.25-10.49-7.007-6.993-10.513-17.43-10.52-31.31v-6.95c0-13.88 3.507-24.317 10.52-31.31 7.013-6.993 17.43-10.49 31.25-10.49h7.26Zm103.37 0c13.813 0 24.23 3.497 31.25 10.49s10.523 17.43 10.51 31.31v7.85h-81.56c.2 10.967 2.973 19.04 8.32 24.22s13.517 7.77 24.51 7.77h6.66c8.173 0 14.73-1.257 19.67-3.77a20.652 20.652 0 0 0 10.29-11.16h9.68a28.373 28.373 0 0 1-13 17.73c-6.667 4.073-15.443 6.11-26.33 6.11H767c-13.827 0-24.243-3.497-31.25-10.49-7.007-6.993-10.513-17.43-10.52-31.31v-6.95c0-13.88 3.507-24.317 10.52-31.31 7.013-6.993 17.43-10.49 31.25-10.49h7.24ZM462.31 478h-6.66c-11.2 0-19.473 2.717-24.82 8.15-5.347 5.433-8.013 13.833-8 25.2v6c0 11.373 2.667 19.773 8 25.2s13.607 8.143 24.82 8.15h6.66c11.193 0 19.467-2.717 24.82-8.15 5.353-5.433 8.02-13.833 8-25.2v-6c0-11.367-2.667-19.767-8-25.2S473.52 478 462.3 478h.01Zm104.82 0h-6.66c-11.193 0-19.467 2.717-24.82 8.15-5.353 5.433-8.02 13.833-8 25.2v6c0 11.373 2.667 19.773 8 25.2s13.607 8.143 24.82 8.15h6.65c11.2 0 19.473-2.717 24.82-8.15 5.347-5.433 8.013-13.833 8-25.2v-6c0-11.367-2.667-19.767-8-25.2S578.333 478 567.12 478h.01Zm-310.4 0h-6.66c-11 0-19.17 2.59-24.51 7.77s-8.113 13.203-8.32 24.07h72.33c-.2-10.867-2.973-18.89-8.32-24.07S267.727 478 256.72 478h.01Zm413.84 0h-6.65c-11 0-19.173 2.59-24.52 7.77-5.347 5.18-8.12 13.203-8.32 24.07h72.32c-.2-10.867-2.973-18.89-8.32-24.07S681.563 478 670.57 478Zm103.37 0h-6.66c-11 0-19.173 2.59-24.52 7.77-5.347 5.18-8.12 13.203-8.32 24.07h72.33c-.207-10.867-2.98-18.89-8.32-24.07S784.937 478 773.93 478h.01Z"/>
   </g>
   <defs>
      <clipPath id="a">
         <path fill="#fff" d="M0 0h1024v1024H0z"/>
      </clipPath>
   </defs>
</svg>

<svg width="1024" height="1024" viewBox="0 0 1024 1024" fill="none" xmlns="http://www.w3.org/2000/svg">
<g clip-path="url(#clip0_2_2076)">
<path d="M512 1024C794.77 1024 1024 794.77 1024 512C1024 229.23 794.77 0 512 0C229.23 0 0 229.23 0 512C0 794.77 229.23 1024 512 1024Z" fill="#979797"/>
<path d="M257 469.1C270.82 469.1 281.237 472.597 288.25 479.59C295.263 486.583 298.77 497.02 298.77 510.9V518.75H217.23C217.43 529.717 220.203 537.79 225.55 542.97C230.897 548.15 239.07 550.74 250.07 550.74H256.72C264.893 550.74 271.45 549.483 276.39 546.97C281.113 544.691 284.791 540.702 286.68 535.81H296.36C295.482 539.482 293.88 542.941 291.648 545.986C289.416 549.031 286.598 551.599 283.36 553.54C276.693 557.607 267.917 559.643 257.03 559.65H249.76C235.94 559.65 225.523 556.153 218.51 549.16C211.497 542.167 207.993 531.727 208 517.84V510.9C208 497.02 211.507 486.583 218.52 479.59C225.533 472.597 235.95 469.1 249.77 469.1H257ZM360.36 469.1C372.667 469.1 382.3 471.89 389.26 477.47C396.22 483.05 400.357 491.383 401.67 502.47H392.44C391.107 494.13 387.803 487.97 382.53 483.99C377.257 480.01 369.767 478.01 360.06 477.99H353.4C342.2 477.99 333.927 480.707 328.58 486.14C323.233 491.573 320.567 499.973 320.58 511.34V517.34C320.58 528.713 323.247 537.113 328.58 542.54C333.913 547.967 342.187 550.683 353.4 550.69H360.05C369.737 550.69 377.23 548.69 382.53 544.69C387.83 540.69 391.133 534.527 392.44 526.2H401.67C400.337 537.267 396.2 545.6 389.26 551.2C382.32 556.8 372.687 559.59 360.36 559.57H353.1C339.273 559.57 328.857 556.073 321.85 549.08C314.843 542.087 311.337 531.65 311.33 517.77V510.9C311.33 497.02 314.837 486.583 321.85 479.59C328.863 472.597 339.28 469.1 353.1 469.1H360.36ZM462.57 469.1C476.39 469.1 486.807 472.597 493.82 479.59C500.833 486.583 504.34 497.02 504.34 510.9V517.84C504.34 531.727 500.833 542.163 493.82 549.15C486.807 556.137 476.393 559.633 462.58 559.64H455.32C441.493 559.64 431.077 556.143 424.07 549.15C417.063 542.157 413.557 531.72 413.55 517.84V510.9C413.55 497.02 417.057 486.583 424.07 479.59C431.083 472.597 441.5 469.1 455.32 469.1H462.58H462.57ZM527.57 440.03V483.03C530.718 478.381 535.162 474.757 540.35 472.61C545.75 470.297 552.333 469.14 560.1 469.14H567.37C581.19 469.14 591.607 472.637 598.62 479.63C605.633 486.623 609.14 497.06 609.14 510.94V517.88C609.14 531.767 605.633 542.203 598.62 549.19C591.607 556.177 581.19 559.673 567.37 559.68H560.1C546.28 559.68 535.863 556.183 528.85 549.19C521.837 542.197 518.353 531.747 518.4 517.84V440L527.57 440.03ZM670.87 469.1C684.69 469.1 695.107 472.597 702.12 479.59C709.133 486.583 712.64 497.02 712.64 510.9V518.75H631.08C631.28 529.717 634.053 537.79 639.4 542.97C644.747 548.15 652.917 550.74 663.91 550.74H670.57C678.743 550.74 685.3 549.483 690.24 546.97C694.962 544.691 698.641 540.702 700.53 535.81H710.21C709.332 539.482 707.73 542.941 705.498 545.986C703.266 549.031 700.448 551.599 697.21 553.54C690.543 557.607 681.763 559.643 670.87 559.65H663.61C649.783 559.65 639.367 556.153 632.36 549.16C625.353 542.167 621.847 531.73 621.84 517.85V510.9C621.84 497.02 625.347 486.583 632.36 479.59C639.373 472.597 649.79 469.1 663.61 469.1H670.87ZM774.24 469.1C788.053 469.1 798.47 472.597 805.49 479.59C812.51 486.583 816.013 497.02 816 510.9V518.75H734.44C734.64 529.717 737.413 537.79 742.76 542.97C748.107 548.15 756.277 550.74 767.27 550.74H773.93C782.103 550.74 788.66 549.483 793.6 546.97C798.322 544.691 802.001 540.702 803.89 535.81H813.57C812.692 539.482 811.09 542.941 808.858 545.986C806.626 549.031 803.808 551.599 800.57 553.54C793.903 557.613 785.127 559.65 774.24 559.65H767C753.173 559.65 742.757 556.153 735.75 549.16C728.743 542.167 725.237 531.73 725.23 517.85V510.9C725.23 497.02 728.737 486.583 735.75 479.59C742.763 472.597 753.18 469.1 767 469.1H774.24ZM462.31 478H455.65C444.45 478 436.177 480.717 430.83 486.15C425.483 491.583 422.817 499.983 422.83 511.35V517.35C422.83 528.723 425.497 537.123 430.83 542.55C436.163 547.977 444.437 550.693 455.65 550.7H462.31C473.503 550.7 481.777 547.983 487.13 542.55C492.483 537.117 495.15 528.717 495.13 517.35V511.35C495.13 499.983 492.463 491.583 487.13 486.15C481.797 480.717 473.52 478 462.3 478H462.31ZM567.13 478H560.47C549.277 478 541.003 480.717 535.65 486.15C530.297 491.583 527.63 499.983 527.65 511.35V517.35C527.65 528.723 530.317 537.123 535.65 542.55C540.983 547.977 549.257 550.693 560.47 550.7H567.12C578.32 550.7 586.593 547.983 591.94 542.55C597.287 537.117 599.953 528.717 599.94 517.35V511.35C599.94 499.983 597.273 491.583 591.94 486.15C586.607 480.717 578.333 478 567.12 478H567.13ZM256.73 478H250.07C239.07 478 230.9 480.59 225.56 485.77C220.22 490.95 217.447 498.973 217.24 509.84H289.57C289.37 498.973 286.597 490.95 281.25 485.77C275.903 480.59 267.727 478 256.72 478H256.73ZM670.57 478H663.92C652.92 478 644.747 480.59 639.4 485.77C634.053 490.95 631.28 498.973 631.08 509.84H703.4C703.2 498.973 700.427 490.95 695.08 485.77C689.733 480.59 681.563 478 670.57 478ZM773.94 478H767.28C756.28 478 748.107 480.59 742.76 485.77C737.413 490.95 734.64 498.973 734.44 509.84H806.77C806.563 498.973 803.79 490.95 798.45 485.77C793.11 480.59 784.937 478 773.93 478H773.94Z" fill="white"/>
</g>
<defs>
<clipPath id="clip0_2_2076">
<rect width="1024" height="1024" fill="white"/>
</clipPath>
</defs>
</svg>
